X:1
T:Scots Wha Hae
Z:Jack Campin: "Embro, Embro", transcription (c) 2001
F:13law/abc/ScotsWha.abc
S:Gall and Inglis, Select Songs of Scotland
M:2/4
L:1/8
Q:1/4=88
K:F Mixolydian
F> F F> D|F> G B2|G> G G  F|G> A Bc|
d> d c> B|B> c d2|B> G G> F|F4    ||
d> d d> c|d> e f2|c> c c> B|c> d e2|
f> d c> B|B> c d2|B> G G> F|F4    |]

